X: 16231
T: Geld Him Lasses Geld him
%R: triple hornpipe
B: James Oswald "The Caledonian Pocket Companion" v.1 b.6 p.23 (top 5 staff continued from p.22)
S: https://ia800501.us.archive.org/18/items/caledonianpocket01rugg/caledonianpocket01rugg_bw.pdf
Z: 2020 John Chambers <jc:trillian.mit.edu>
M: 3/2
L: 1/8
K: D
|: "_Brisk"\
d4 A2(Bc) d2D2 | F2 A4 d2 c2B2 |\
e4 B2(cd) e2E2 | G2 B4 d2 c2(BA) ::\
d3e (defg) (agfe) | d2 f4 a2 g2f2 |
(ef)g2 (fg)a2 (ga)b2 | g2 e4 B2 Tc2(BA) ::\
F2D2 A2D2 d2D2 | F2 A4 d2 Tc2B2 |\
e2E2 G2E2 e2E2 | F2 B4 d2 c2(BA) :|
|:\
(dfaf) d2a2 f2a2 | d2 f4 a2 g2f2 |\
egbg e2b2 g2b2 | e2 B4 d2 Tc2(BA) ::\
(dcBA) (BAGF) (GFED) | F2A2 D2d2 Tc2B2 |
(e^dcB) (cBA^G) (A^GFE) | ^G2 B4 d2 c2(BA) ::\
(defg) a2d2 a4 | f2 d4 d'2 f2d2 |\
efga b2e2 b4 | g2 e4 B2 Tc2(BA) :|


